X:160
T:B160-  The glories of our birth and state
Q:1/4=120
L:1/4
M:3/4
K:F
FA3/2B/2|c2c|d2(c/2B/4A/4)|G3|\
GcA|d2A|A2^G|A2^c|\
d2c|=BGc3/4B/4|(c3|c3)|\
cG3/2A/2|E2F|G2F|F3||\
c2G/2A/2|B3|Ad3/2e/2|.^c3|cc3/2c/2|A2A|A2^G|\
A2c/2c/2|c(=B_B)|A2A|G2G|F3|]
